Newaita-dark/actions/symbolic/view-paged-symbolic.svg

<svg height="16" viewBox="0 0 16 16" width="16" xmlns="http://www.w3.org/2000/svg"><g fill="#e0e0e0"><path d="m13.5625 4.09375h.660156c.367188 0 .660156.296875.660156.660156v9.59375c0 .367188-.292968.660156-.660156.660156h-.660156c-.367188 0-.664062-.292968-.664062-.660156v-9.59375c0-.363281.296874-.660156.664062-.660156zm0 0"/><path d="m5.621094 4.09375h8.601562c.367188 0 .660156.296875.660156.660156v.664063c0 .363281-.292968.660156-.660156.660156h-8.601562c-.363282 0-.660156-.296875-.660156-.660156v-.664063c0-.363281.296874-.660156.660156-.660156zm0 0"/><path d="m5.621094 4.09375h.664062c.363282 0 .660156.296875.660156.660156v9.59375c0 .367188-.296874.660156-.660156.660156h-.664062c-.363282 0-.660156-.292968-.660156-.660156v-9.59375c0-.363281.296874-.660156.660156-.660156zm0 0"/><path d="m5.621094 13.023438h8.601562c.367188 0 .660156.296874.660156.664062v.660156c0 .367188-.292968.660156-.660156.660156h-8.601562c-.363282 0-.660156-.292968-.660156-.660156v-.660156c0-.367188.296874-.664062.660156-.664062zm0 0"/><path d="m9.582031 1.117188h.679688c.359375 0 .652343.296874.652343.660156v3.308594c0 .367187-.292968.660156-.652343.660156h-.679688c-.359375 0-.652343-.292969-.652343-.660156v-3.308594c0-.363282.292968-.660156.652343-.660156zm0 0"/><path d="m1.652344 1.117188h8.601562c.363282 0 .660156.296874.660156.660156v.664062c0 .363282-.296874.660156-.660156.660156h-8.601562c-.363282 0-.660156-.296874-.660156-.660156v-.664062c0-.363282.296874-.660156.660156-.660156zm0 0"/><path d="m1.652344 1.117188h.664062c.363282 0 .660156.296874.660156.660156v9.59375c0 .363281-.296874.660156-.660156.660156h-.664062c-.363282 0-.660156-.296875-.660156-.660156v-9.59375c0-.363282.296874-.660156.660156-.660156zm0 0"/><path d="m1.652344 10.046875h3.96875c.367187 0 .664062.296875.664062.664063v.660156c0 .363281-.296875.660156-.664062.660156h-3.96875c-.363282 0-.660156-.296875-.660156-.660156v-.660156c0-.367188.296874-.664063.660156-.664063zm0 0"/></g></svg>

<?xml version="1.0" encoding="UTF-8"?>
<svg xmlns="http://www.w3.org/2000/svg" xmlns:xlink="http://www.w3.org/1999/xlink" width="16px" height="16px" viewBox="0 0 16 16" version="1.1">
<g id="surface1">
<path style=" stroke:none;fill-rule:nonzero;fill:rgb(87.843138%,87.843138%,87.843138%);fill-opacity:1;" d="M 13.5625 4.09375 L 14.222656 4.09375 C 14.589844 4.09375 14.882812 4.390625 14.882812 4.753906 L 14.882812 14.347656 C 14.882812 14.714844 14.589844 15.007812 14.222656 15.007812 L 13.5625 15.007812 C 13.195312 15.007812 12.898438 14.714844 12.898438 14.347656 L 12.898438 4.753906 C 12.898438 4.390625 13.195312 4.09375 13.5625 4.09375 Z M 13.5625 4.09375 "/>
<path style=" stroke:none;fill-rule:nonzero;fill:rgb(87.843138%,87.843138%,87.843138%);fill-opacity:1;" d="M 5.621094 4.09375 L 14.222656 4.09375 C 14.589844 4.09375 14.882812 4.390625 14.882812 4.753906 L 14.882812 5.417969 C 14.882812 5.78125 14.589844 6.078125 14.222656 6.078125 L 5.621094 6.078125 C 5.257812 6.078125 4.960938 5.78125 4.960938 5.417969 L 4.960938 4.753906 C 4.960938 4.390625 5.257812 4.09375 5.621094 4.09375 Z M 5.621094 4.09375 "/>
<path style=" stroke:none;fill-rule:nonzero;fill:rgb(87.843138%,87.843138%,87.843138%);fill-opacity:1;" d="M 5.621094 4.09375 L 6.285156 4.09375 C 6.648438 4.09375 6.945312 4.390625 6.945312 4.753906 L 6.945312 14.347656 C 6.945312 14.714844 6.648438 15.007812 6.285156 15.007812 L 5.621094 15.007812 C 5.257812 15.007812 4.960938 14.714844 4.960938 14.347656 L 4.960938 4.753906 C 4.960938 4.390625 5.257812 4.09375 5.621094 4.09375 Z M 5.621094 4.09375 "/>
<path style=" stroke:none;fill-rule:nonzero;fill:rgb(87.843138%,87.843138%,87.843138%);fill-opacity:1;" d="M 5.621094 13.023438 L 14.222656 13.023438 C 14.589844 13.023438 14.882812 13.320312 14.882812 13.6875 L 14.882812 14.347656 C 14.882812 14.714844 14.589844 15.007812 14.222656 15.007812 L 5.621094 15.007812 C 5.257812 15.007812 4.960938 14.714844 4.960938 14.347656 L 4.960938 13.6875 C 4.960938 13.320312 5.257812 13.023438 5.621094 13.023438 Z M 5.621094 13.023438 "/>
<path style=" stroke:none;fill-rule:nonzero;fill:rgb(87.843138%,87.843138%,87.843138%);fill-opacity:1;" d="M 9.582031 1.117188 L 10.261719 1.117188 C 10.621094 1.117188 10.914062 1.414062 10.914062 1.777344 L 10.914062 5.085938 C 10.914062 5.453125 10.621094 5.746094 10.261719 5.746094 L 9.582031 5.746094 C 9.222656 5.746094 8.929688 5.453125 8.929688 5.085938 L 8.929688 1.777344 C 8.929688 1.414062 9.222656 1.117188 9.582031 1.117188 Z M 9.582031 1.117188 "/>
<path style=" stroke:none;fill-rule:nonzero;fill:rgb(87.843138%,87.843138%,87.843138%);fill-opacity:1;" d="M 1.652344 1.117188 L 10.253906 1.117188 C 10.617188 1.117188 10.914062 1.414062 10.914062 1.777344 L 10.914062 2.441406 C 10.914062 2.804688 10.617188 3.101562 10.253906 3.101562 L 1.652344 3.101562 C 1.289062 3.101562 0.992188 2.804688 0.992188 2.441406 L 0.992188 1.777344 C 0.992188 1.414062 1.289062 1.117188 1.652344 1.117188 Z M 1.652344 1.117188 "/>
<path style=" stroke:none;fill-rule:nonzero;fill:rgb(87.843138%,87.843138%,87.843138%);fill-opacity:1;" d="M 1.652344 1.117188 L 2.316406 1.117188 C 2.679688 1.117188 2.976562 1.414062 2.976562 1.777344 L 2.976562 11.371094 C 2.976562 11.734375 2.679688 12.03125 2.316406 12.03125 L 1.652344 12.03125 C 1.289062 12.03125 0.992188 11.734375 0.992188 11.371094 L 0.992188 1.777344 C 0.992188 1.414062 1.289062 1.117188 1.652344 1.117188 Z M 1.652344 1.117188 "/>
<path style=" stroke:none;fill-rule:nonzero;fill:rgb(87.843138%,87.843138%,87.843138%);fill-opacity:1;" d="M 1.652344 10.046875 L 5.621094 10.046875 C 5.988281 10.046875 6.285156 10.34375 6.285156 10.710938 L 6.285156 11.371094 C 6.285156 11.734375 5.988281 12.03125 5.621094 12.03125 L 1.652344 12.03125 C 1.289062 12.03125 0.992188 11.734375 0.992188 11.371094 L 0.992188 10.710938 C 0.992188 10.34375 1.289062 10.046875 1.652344 10.046875 Z M 1.652344 10.046875 "/>
</g>
</svg>
